!!!OTL: Es steht ein Schlo&szlig; in Österreich (13f), S. 61
!!!id: T0122
**kern
*clefG2
*k[]
*C:
{8g
=1
8g
8cc
4.e
8e
=2
8e
8g
4.f}
=3
{8f
=4
8g
8a
4.a
8e
=5
8g
8f}
4.r
=6
{8g
=7
8g
8b
4.dd
8f
=8
8e
8g
4cc}
=9
{4ee
=10
8dd
8cc
8b
8a
16g
16b
8a
=11
8g
8f}
4.r
=12
{8g
=13
8g
8b
4.dd
8f
=14
8e
8g
4cc}
=15
{4ee
=16
8dd
8cc
8b
8a
8g
8f
=17
8f
8e}
4.r
==
*-
!!!minrhy: 16
!!!meters: 3/4 ]  ZZ[6
!!!cut: Es steht ein Schlo&szlig; in Österreich (13f), S. 61
!!!reg: Luxemburg
!!!trd: Singendes Volk, Esch-Alzette 1937 posth.
!!!rhy1: X_  X_X_X__.X_  X_X_X__.   (x2)
!!!rhy2: X_  X_X_X__.X_  X_X_0_.
!!!key: T0122  16  C 3/4 ]  ZZ[6
!!!mod: HEPTATONIK IONISCH]  AMBITUS[8
!!!kad: 44+14+13
!!!akz: 53_55_53_+25_53_+24_
!!!fot: 'a__b__c__d__c__dw_
!!!for: 'a__a__av_b__av_c__
!!!fok: '\__^__~a_\__~a_\__
!! PHRAS[AUFTAKTIG]
!!!fkt: "erz&auml;hlendes Lied"
!!!bem1: RODERSHAUSEN; gesungen von J. Haas 1930;
!!!bem2: mitgeteilt von hhh Josef Bour, Lehrer daselbst
!! THILL, Mathias:
!! PR[19] 2K[14] 2G[25] 3K[0] 3G[0] 4A[8] 4Ü[0] 5A[0] 6K[0] 6G[0]
!! 7K[0] 7G[0] 8A[0] MEHR[0] SI[47] ABS[59] SR[39] SP[8]
!! ST[16] 2k[7] 2g[12] 3k[8] 3g[3] 4d[3] 4ü[0] 5d[0] 6k[0] 6g[0]
!! 7k[0] 7g[0] 8d[0] mehr[0] si[34] dm[+13] sr[19] sp[15]
!! 1F[13] 2F[79] 3F[8] 4F[0] LF[0] 2P[0] 3P[0] 4P[0] TRI[0] DF[3] AB[63]
!! TF[0] U3K[0] U3[0] U4[0] U4Ü[0] U5[2] U6K[0] U6[0] U7K[0] U7[0]
!! N1[8] N2K[0] N2[15] N3K[0] N3[12] N4[8] N4Ü[3] N5[28] N6K[0] N6[10]
!!!n7k: 0] N7[5] O1[8] O2K[0] O2[0] O3K[0] O3[0] HÖ[0
!!!RNB: symbol: &szlig; = sz ligature (UTF-8: ÃŸ)
!!!RNB: symbol: &auml;      = a umlaut  (UTF-8: Å„)
